img/right_q.svg

<svg width="51" height="42" viewBox="0 0 51 42" fill="none" xmlns="http://www.w3.org/2000/svg">
<path d="M22.9135 13.625C22.9135 19.9867 20.4845 25.8856 15.6265 31.3219C10.7685 36.7583 6.60455 40.1704 3.13457 41.5584L0.532078 37.9149C4.00206 36.0643 6.95155 33.4039 9.38054 29.934C11.6939 26.464 13.024 22.8783 13.371 19.177C12.4457 19.7553 10.9999 20.0445 9.03354 20.0445C6.95155 20.0445 5.15873 19.1192 3.65507 17.2685C2.15141 15.5335 1.39958 13.2202 1.39958 10.3285C1.39958 7.43689 2.49841 5.06573 4.69607 3.21507C6.77805 1.48008 9.38054 0.612584 12.5035 0.612584C15.6265 0.612584 18.1712 1.71141 20.1375 3.90907C21.9882 6.10673 22.9135 9.34538 22.9135 13.625ZM40.4369 0.612587C43.4442 0.612587 45.931 2.23191 47.8974 5.47057C49.8637 8.70922 50.8469 12.2949 50.8469 16.2275C50.8469 20.1602 50.0372 23.6302 48.4179 26.6375C46.7985 29.7605 44.7744 32.3051 42.3454 34.2714C37.7187 37.9728 33.9596 40.4017 31.0679 41.5584L28.4655 37.9149C31.9354 36.0643 34.8849 33.4039 37.3139 29.934C39.6272 26.464 40.9574 22.8783 41.3044 19.177C40.3791 19.7553 38.9332 20.0445 36.9669 20.0445C34.8849 20.0445 33.0921 19.1192 31.5884 17.2685C30.0848 15.5335 29.333 13.2202 29.333 10.3285C29.333 7.43689 30.4318 5.06574 32.6294 3.21508C34.7114 1.48008 37.3139 0.612586 40.4369 0.612587Z" fill="white"/>
</svg>

<svg width="51" height="42" fill="none" xmlns="http://www.w3.org/2000/svg"><path d="M22.913 13.625c0 6.362-2.428 12.26-7.287 17.697-4.857 5.436-9.021 8.848-12.491 10.236L.532 37.915c3.47-1.85 6.42-4.511 8.849-7.981 2.313-3.47 3.643-7.056 3.99-10.757-.925.578-2.371.867-4.337.867-2.082 0-3.875-.925-5.379-2.776C2.151 15.534 1.4 13.22 1.4 10.328c0-2.891 1.098-5.262 3.296-7.113C6.778 1.48 9.381.613 12.504.613s5.667 1.098 7.633 3.296c1.851 2.198 2.776 5.436 2.776 9.716zM40.438.613c3.007 0 5.494 1.619 7.46 4.858 1.967 3.238 2.95 6.824 2.95 10.756 0 3.933-.81 7.403-2.43 10.41-1.619 3.123-3.643 5.668-6.072 7.634-4.626 3.702-8.385 6.13-11.277 7.287l-2.603-3.643c3.47-1.85 6.42-4.511 8.849-7.981 2.313-3.47 3.643-7.056 3.99-10.757-.925.578-2.37.867-4.337.867-2.082 0-3.875-.925-5.379-2.776-1.503-1.735-2.255-4.048-2.255-6.94 0-2.891 1.099-5.262 3.296-7.113C34.711 1.48 37.314.613 40.437.613z" fill="#fff"/></svg>
